startshape Shapes

rule Shapes {
	repeat{ hue 270 sat 0.9 b 0.7 }
	repeat{flip 180 size 0.7 hue 150 sat 0.6 b 0.7 }
}

rule repeat 5 {
	CIRCLE [size 0.5]
	repeat{y 0.3 rotate 5 size 0.99 hue 1 sat 0.9 b 0.7 }
}

rule repeat 5 {
	CIRCLE {size 0.2}
	repeat{y 0.4 rotate 4 size 1.001}
}